Papirus/64x64/apps/asbru-cm.svg

<?xml version="1.0" encoding="UTF-8" standalone="no"?>
<svg
   id="_图层_1"
   version="1.1"
   viewBox="0 0 64 64" width="64" height="64"
   sodipodi:docname="asbru-cm.svg"
   xml:space="preserve"
   inkscape:version="1.4 (e7c3feb100, 2024-10-09)"
   xmlns:inkscape="http://www.inkscape.org/namespaces/inkscape"
   xmlns:sodipodi="http://sodipodi.sourceforge.net/DTD/sodipodi-0.dtd"
   xmlns="http://www.w3.org/2000/svg"
   xmlns:svg="http://www.w3.org/2000/svg"><sodipodi:namedview
     id="namedview26"
     pagecolor="#505050"
     bordercolor="#eeeeee"
     borderopacity="1"
     inkscape:showpageshadow="0"
     inkscape:pageopacity="0"
     inkscape:pagecheckerboard="0"
     inkscape:deskcolor="#505050"
     inkscape:zoom="10.6875"
     inkscape:cx="44.25731"
     inkscape:cy="24.51462"
     inkscape:window-width="1920"
     inkscape:window-height="939"
     inkscape:window-x="0"
     inkscape:window-y="34"
     inkscape:window-maximized="1"
     inkscape:current-layer="_图层_1" /><!-- Generator: Adobe Illustrator 29.0.1, SVG Export Plug-In . SVG Version: 2.1.0 Build 192)  --><defs
     id="defs6"><style
       id="style1">
      .st0 {
        fill-opacity: .5;
      }

      .st0, .st1, .st2, .st3, .st4, .st5, .st6, .st7 {
        fill: #fff;
      }

      .st8 {
        fill: #133c9a;
      }

      .st2, .st9 {
        display: none;
      }

      .st3 {
        fill-opacity: .2;
      }

      .st4 {
        fill-opacity: .9;
      }

      .st10 {
        fill: #3370ff;
      }

      .st11 {
        fill: url(#_未命名的渐变_3);
      }

      .st12 {
        fill: url(#_未命名的渐变);
      }

      .st5 {
        fill-opacity: .3;
      }

      .st6 {
        fill-opacity: 0;
      }

      .st7 {
        fill-opacity: .7;
      }

      .st13 {
        fill: #00d6b9;
      }

      .st14 {
        fill: url(#_未命名的渐变_2);
      }
    </style><radialGradient
       id="_未命名的渐变"
       data-name="未命名的渐变"
       cx="123.9"
       cy="-40.2"
       fx="123.9"
       fy="-40.2"
       r="59.4"
       gradientTransform="translate(-26.8 25.5) scale(.6 -.7)"
       gradientUnits="userSpaceOnUse"><stop
         offset="0"
         stop-color="#db202e"
         id="stop1" /><stop
         offset="1"
         stop-color="#e01b24"
         id="stop2" /></radialGradient><radialGradient
       id="_未命名的渐变_2"
       data-name="未命名的渐变 2"
       cx="67.6"
       cy="26.8"
       fx="67.6"
       fy="26.8"
       r="105.2"
       gradientTransform="translate(-26.6 25.3) scale(.6 -.7)"
       gradientUnits="userSpaceOnUse"><stop
         offset="0"
         stop-color="#ffb648"
         id="stop3" /><stop
         offset="1"
         stop-color="#ff7800"
         stop-opacity="0"
         id="stop4" /></radialGradient><radialGradient
       id="_未命名的渐变_3"
       data-name="未命名的渐变 3"
       cx="61.7"
       cy="18.6"
       fx="61.7"
       fy="18.6"
       r="68"
       gradientTransform="translate(-26.8 25.8) scale(.6 -.7)"
       gradientUnits="userSpaceOnUse"><stop
         offset="0"
         stop-color="#c64600"
         id="stop5" /><stop
         offset="1"
         stop-color="#a51d2d"
         id="stop6" /></radialGradient></defs><path
     class="st1"
     d="M 47.5,64.1 H 13.8 C 6.2,64.1 0,57.8 0,50.3 V 13.7 C 0,6.2 6.2,0 13.7,0 H 50.3 C 57.8,0 64,6.2 64,13.7 V 50.3 C 64,57.8 57.8,64 50.3,64 h -2.9 0.1 z"
     id="path6"
     style="display:inline;fill:#1f4690;fill-opacity:1" /><g
     id="g26"
     transform="matrix(1.0654971,0,0,1.1030826,-1.9789474,-3.148429)"><rect
       style="opacity:0.2"
       width="48"
       height="46"
       x="8"
       y="10"
       rx="2.8239999"
       ry="2.875"
       id="rect3" /><rect
       style="fill:#378137"
       width="48"
       height="46"
       x="8"
       y="9"
       rx="2.8239999"
       ry="2.875"
       id="rect4" /><rect
       style="opacity:0.2"
       width="36"
       height="34"
       x="14"
       y="16"
       rx="2.7690001"
       ry="2.8329999"
       id="rect5" /><rect
       style="fill:#e35c33"
       width="36"
       height="34"
       x="14"
       y="15"
       rx="2.7690001"
       ry="2.8329999"
       id="rect6" /><path
       style="opacity:0.2"
       d="M 22.000002,22 C 20.892,22 20,22.919874 20,24.0625 v 15.92625 c 0,1.142624 0.893988,1.996138 2.000002,2.062498 h 3.33333 L 28,44 h 8 l 2.666666,-1.948752 h 3.333332 C 43.108,42.051248 44,41.131374 44,39.98875 V 24.0625 C 44,22.919874 43.108,22 41.999998,22 Z M 24,26 H 39.999998 V 38.1255 H 36 L 33.333332,40 h -2.666666 l -3,-1.8745 H 24 Z"
       id="path6-5" /><path
       style="fill:#fef600"
       d="M 22.000002,21 C 20.892,21 20,21.919874 20,23.0625 v 15.92625 c 0,1.142624 0.893988,1.996138 2.000002,2.062498 h 3.33333 L 28,43 h 8 l 2.666666,-1.948752 h 3.333332 C 43.108,41.051248 44,40.131374 44,38.98875 V 23.0625 C 44,21.919874 43.108,21 41.999998,21 Z M 24,25 H 39.999998 V 37.1255 H 36 L 33.333332,39 h -2.666666 l -3,-1.8745 H 24 Z"
       id="path7" /><path
       style="opacity:0.1;fill:#ffffff"
       d="M 10.824219,9 C 9.2599835,9 8,10.28225 8,11.875 v 1 C 8,11.28225 9.2599835,10 10.824219,10 H 53.175781 C 54.740015,10 56,11.28225 56,12.875 v -1 C 56,10.28225 54.740015,9 53.175781,9 Z"
       id="path9" /><path
       style="opacity:0.1;fill:#ffffff"
       d="M 16.769531,15 C 15.235378,15 14,16.262363 14,17.832031 v 1 C 14,17.262363 15.235378,16 16.769531,16 H 47.230469 C 48.764623,16 50,17.262363 50,18.832031 v -1 C 50,16.262363 48.764623,15 47.230469,15 Z"
       id="path10" /><path
       style="opacity:0.2;fill:#ffffff"
       d="m 22,21 c -1.108002,0 -2,0.919874 -2,2.0625 v 1 C 20,22.919874 20.891998,22 22,22 h 20 c 1.108002,0 2,0.919874 2,2.0625 v -1 C 44,21.919874 43.108002,21 42,21 Z m 2,16.125 v 1 h 3.666016 l 3,1.875 h 2.667968 L 36,38.125 h 4 v -1 H 36 L 33.333984,39 h -2.667968 l -3,-1.875 z"
       id="path11" /></g></svg>

<svg xmlns="http://www.w3.org/2000/svg" width="64" height="64" version="1">
 <rect style="opacity:0.2" width="60" height="58" x="2" y="4" rx="2.857" ry="2.9"/>
 <rect style="fill:#1f4690" width="60" height="58" x="2" y="3" rx="2.857" ry="2.9"/>
 <rect style="opacity:0.2" width="48" height="46" x="8" y="10" rx="2.824" ry="2.875"/>
 <rect style="fill:#378137" width="48" height="46" x="8" y="9" rx="2.824" ry="2.875"/>
 <rect style="opacity:0.2" width="36" height="34" x="14" y="16" rx="2.769" ry="2.833"/>
 <rect style="fill:#e35c33" width="36" height="34" x="14" y="15" rx="2.769" ry="2.833"/>
 <path style="opacity:0.2" d="M 22.000002,22 C 20.892,22 20,22.919874 20,24.0625 v 15.92625 c 0,1.142624 0.893988,1.996138 2.000002,2.062498 h 3.33333 L 28,44 h 8 l 2.666666,-1.948752 h 3.333332 C 43.108,42.051248 44,41.131374 44,39.98875 V 24.0625 C 44,22.919874 43.108,22 41.999998,22 Z M 24,26 H 39.999998 V 38.1255 H 36 L 33.333332,40 h -2.666666 l -3,-1.8745 H 24 Z"/>
 <path style="fill:#fef600" d="M 22.000002,21 C 20.892,21 20,21.919874 20,23.0625 v 15.92625 c 0,1.142624 0.893988,1.996138 2.000002,2.062498 h 3.33333 L 28,43 h 8 l 2.666666,-1.948752 h 3.333332 C 43.108,41.051248 44,40.131374 44,38.98875 V 23.0625 C 44,21.919874 43.108,21 41.999998,21 Z M 24,25 H 39.999998 V 37.1255 H 36 L 33.333332,39 h -2.666666 l -3,-1.8745 H 24 Z"/>
 <path style="opacity:0.1;fill:#ffffff" d="M 4.8554688 3 C 3.2726114 3 2 4.2918375 2 5.8984375 L 2 6.8984375 C 2 5.2918375 3.2726114 4 4.8554688 4 L 59.144531 4 C 60.727387 4 62 5.2918375 62 6.8984375 L 62 5.8984375 C 62 4.2918375 60.727387 3 59.144531 3 L 4.8554688 3 z"/>
 <path style="opacity:0.1;fill:#ffffff" d="M 10.824219 9 C 9.2599835 9 8 10.28225 8 11.875 L 8 12.875 C 8 11.28225 9.2599835 10 10.824219 10 L 53.175781 10 C 54.740015 10 56 11.28225 56 12.875 L 56 11.875 C 56 10.28225 54.740015 9 53.175781 9 L 10.824219 9 z"/>
 <path style="opacity:0.1;fill:#ffffff" d="M 16.769531 15 C 15.235378 15 14 16.262363 14 17.832031 L 14 18.832031 C 14 17.262363 15.235378 16 16.769531 16 L 47.230469 16 C 48.764623 16 50 17.262363 50 18.832031 L 50 17.832031 C 50 16.262363 48.764623 15 47.230469 15 L 16.769531 15 z"/>
 <path style="fill:#ffffff;opacity:0.2" d="M 22 21 C 20.891998 21 20 21.919874 20 23.0625 L 20 24.0625 C 20 22.919874 20.891998 22 22 22 L 42 22 C 43.108002 22 44 22.919874 44 24.0625 L 44 23.0625 C 44 21.919874 43.108002 21 42 21 L 22 21 z M 24 37.125 L 24 38.125 L 27.666016 38.125 L 30.666016 40 L 33.333984 40 L 36 38.125 L 40 38.125 L 40 37.125 L 36 37.125 L 33.333984 39 L 30.666016 39 L 27.666016 37.125 L 24 37.125 z"/>
</svg>
